X:355
T: Down the Back Lane
S: "Johnny O'Leary of Sliabh Luachra" (#147)
Z: B.Black
L: 1/8
M: 12/8
Q: 350
R: slide
K: G
e2d c2e d2B G2B|ABA F/G/FA e2d B2c|
ded c2e d2B G2B|ABA F/G/FA G3-G2B|
d3 c2e d2B G2B|ABA F/G/FA e2d B2c|
ded c2e d2B G2B|ABA F/G/FA G3-G2B||
d3-d2e d2B GBd|e3 fed e2c ABc|
d3-d2e d2B G2B|1 ABA F/G/FA G3 G2B :|2\
ABA F/G/FA G3 g2e||
